X: 38025
T: Spey In Spate, The
R: reel
M: 4/4
K: Dmajor
(3A,B,C|:D2FD A,DFA|dcBA ^GAFD|E2GE B,EGB|gecA GECE|
D2FD A,DFA|dDcD Bdef|(3gfe fd ecdB|1 AFGE DA,B,C:|2 AFGE DFAc||
|:ddfd AdFA|DFAd fagf|eege BGED|CEAc egfe|
ddfd AdFA|DFAd fdef|(3gfe fd ecdB|1 AFGE DFAc:|2 AFGE D4||

